taekwondo_lut.cube
TITLE "taekwondo LUT"
LUT_3D_SIZE 9
LUT_3D_INPUT_RANGE 0 1
0.020000 0.010000 0.000000
0.020000 0.010000 0.107023
0.020000 0.010000 0.221595
0.020000 0.010000 0.339200
0.020000 0.010000 0.458820
0.020000 0.010000 0.579959
0.020000 0.010000 0.702325
0.020000 0.010000 0.825719
0.020000 0.010000 0.950000
0.020000 0.171588 0.000000
0.020000 0.171588 0.107023
0.020000 0.171588 0.221595
0.020000 0.171588 0.339200
0.020000 0.171588 0.458820
0.020000 0.171588 0.579959
0.020000 0.171588 0.702325
0.020000 0.171588 0.825719
0.020000 0.171588 0.950000
0.020000 0.311533 0.000000
0.020000 0.311533 0.107023
0.020000 0.311533 0.221595
0.020000 0.311533 0.339200
0.020000 0.311533 0.458820
0.020000 0.311533 0.579959
0.020000 0.311533 0.702325
0.020000 0.311533 0.825719
0.020000 0.311533 0.950000
0.020000 0.444328 0.000000
0.020000 0.444328 0.107023
0.020000 0.444328 0.221595
0.020000 0.444328 0.339200
0.020000 0.444328 0.458820
0.020000 0.444328 0.579959
0.020000 0.444328 0.702325
0.020000 0.444328 0.825719
0.020000 0.444328 0.950000
0.020000 0.572681 0.000000
0.020000 0.572681 0.107023
0.020000 0.572681 0.221595
0.020000 0.572681 0.339200
0.020000 0.572681 0.458820
0.020000 0.572681 0.579959
0.020000 0.572681 0.702325
0.020000 0.572681 0.825719
0.020000 0.572681 0.950000
0.020000 0.697830 0.000000
0.020000 0.697830 0.107023
0.020000 0.697830 0.221595
0.020000 0.697830 0.339200
0.020000 0.697830 0.458820
0.020000 0.697830 0.579959
0.020000 0.697830 0.702325
0.020000 0.697830 0.825719
0.020000 0.697830 0.950000
0.020000 0.820484 0.000000
0.020000 0.820484 0.107023
0.020000 0.820484 0.221595
0.020000 0.820484 0.339200
0.020000 0.820484 0.458820
0.020000 0.820484 0.579959
0.020000 0.820484 0.702325
0.020000 0.820484 0.825719
0.020000 0.820484 0.950000
0.020000 0.941100 0.000000
0.020000 0.941100 0.107023
0.020000 0.941100 0.221595
0.020000 0.941100 0.339200
0.020000 0.941100 0.458820
0.020000 0.941100 0.579959
0.020000 0.941100 0.702325
0.020000 0.941100 0.825719
0.020000 0.941100 0.950000
0.020000 1.000000 0.000000
0.020000 1.000000 0.107023
0.020000 1.000000 0.221595
0.020000 1.000000 0.339200
0.020000 1.000000 0.458820
0.020000 1.000000 0.579959
0.020000 1.000000 0.702325
0.020000 1.000000 0.825719
0.020000 1.000000 0.950000
0.207831 0.010000 0.000000
0.207831 0.010000 0.107023
0.207831 0.010000 0.221595
0.207831 0.010000 0.339200
0.207831 0.010000 0.458820
0.207831 0.010000 0.579959
0.207831 0.010000 0.702325
0.207831 0.010000 0.825719
0.207831 0.010000 0.950000
0.207831 0.171588 0.000000
0.207831 0.171588 0.107023
0.207831 0.171588 0.221595
0.207831 0.171588 0.339200
0.207831 0.171588 0.458820
0.207831 0.171588 0.579959
0.207831 0.171588 0.702325
0.207831 0.171588 0.825719
0.207831 0.171588 0.950000
0.207831 0.311533 0.000000
0.207831 0.311533 0.107023
0.207831 0.311533 0.221595
0.207831 0.311533 0.339200
0.207831 0.311533 0.458820
0.207831 0.311533 0.579959
0.207831 0.311533 0.702325
0.207831 0.311533 0.825719
0.207831 0.311533 0.950000
0.207831 0.444328 0.000000
0.207831 0.444328 0.107023
0.207831 0.444328 0.221595
0.207831 0.444328 0.339200
0.207831 0.444328 0.458820
0.207831 0.444328 0.579959
0.207831 0.444328 0.702325
0.207831 0.444328 0.825719
0.207831 0.444328 0.950000
0.207831 0.572681 0.000000
0.207831 0.572681 0.107023
0.207831 0.572681 0.221595
0.207831 0.572681 0.339200
0.207831 0.572681 0.458820
0.207831 0.572681 0.579959
0.207831 0.572681 0.702325
0.207831 0.572681 0.825719
0.207831 0.572681 0.950000
0.207831 0.697830 0.000000
0.207831 0.697830 0.107023
0.207831 0.697830 0.221595
0.207831 0.697830 0.339200
0.207831 0.697830 0.458820
0.207831 0.697830 0.579959
0.207831 0.697830 0.702325
0.207831 0.697830 0.825719
0.207831 0.697830 0.950000
0.207831 0.820484 0.000000
0.207831 0.820484 0.107023
0.207831 0.820484 0.221595
0.207831 0.820484 0.339200
0.207831 0.820484 0.458820
0.207831 0.820484 0.579959
0.207831 0.820484 0.702325
0.207831 0.820484 0.825719
0.207831 0.820484 0.950000
0.207831 0.941100 0.000000
0.207831 0.941100 0.107023
0.207831 0.941100 0.221595
0.207831 0.941100 0.339200
0.207831 0.941100 0.458820
0.207831 0.941100 0.579959
0.207831 0.941100 0.702325
0.207831 0.941100 0.825719
0.207831 0.941100 0.950000
0.207831 1.000000 0.000000
0.207831 1.000000 0.107023
0.207831 1.000000 0.221595
0.207831 1.000000 0.339200
0.207831 1.000000 0.458820
0.207831 1.000000 0.579959
0.207831 1.000000 0.702325
0.207831 1.000000 0.825719
0.207831 1.000000 0.950000
0.358565 0.010000 0.000000
0.358565 0.010000 0.107023
0.358565 0.010000 0.221595
0.358565 0.010000 0.339200
0.358565 0.010000 0.458820
0.358565 0.010000 0.579959
0.358565 0.010000 0.702325
0.358565 0.010000 0.825719
0.358565 0.010000 0.950000
0.358565 0.171588 0.000000
0.358565 0.171588 0.107023
0.358565 0.171588 0.221595
0.358565 0.171588 0.339200
0.358565 0.171588 0.458820
0.358565 0.171588 0.579959
0.358565 0.171588 0.702325
0.358565 0.171588 0.825719
0.358565 0.171588 0.950000
0.358565 0.311533 0.000000
0.358565 0.311533 0.107023
0.358565 0.311533 0.221595
0.358565 0.311533 0.339200
0.358565 0.311533 0.458820
0.358565 0.311533 0.579959
0.358565 0.311533 0.702325
0.358565 0.311533 0.825719
0.358565 0.311533 0.950000
0.358565 0.444328 0.000000
0.358565 0.444328 0.107023
0.358565 0.444328 0.221595
0.358565 0.444328 0.339200
0.358565 0.444328 0.458820
0.358565 0.444328 0.579959
0.358565 0.444328 0.702325
0.358565 0.444328 0.825719
0.358565 0.444328 0.950000
0.358565 0.572681 0.000000
0.358565 0.572681 0.107023
0.358565 0.572681 0.221595
0.358565 0.572681 0.339200
0.358565 0.572681 0.458820
0.358565 0.572681 0.579959
0.358565 0.572681 0.702325
0.358565 0.572681 0.825719
0.358565 0.572681 0.950000
0.358565 0.697830 0.000000
0.358565 0.697830 0.107023
0.358565 0.697830 0.221595
0.358565 0.697830 0.339200
0.358565 0.697830 0.458820
0.358565 0.697830 0.579959
0.358565 0.697830 0.702325
0.358565 0.697830 0.825719
0.358565 0.697830 0.950000
0.358565 0.820484 0.000000
0.358565 0.820484 0.107023
0.358565 0.820484 0.221595
0.358565 0.820484 0.339200
0.358565 0.820484 0.458820
0.358565 0.820484 0.579959
0.358565 0.820484 0.702325
0.358565 0.820484 0.825719
0.358565 0.820484 0.950000
0.358565 0.941100 0.000000
0.358565 0.941100 0.107023
0.358565 0.941100 0.221595
0.358565 0.941100 0.339200
0.358565 0.941100 0.458820
0.358565 0.941100 0.579959
0.358565 0.941100 0.702325
0.358565 0.941100 0.825719
0.358565 0.941100 0.950000
0.358565 1.000000 0.000000
0.358565 1.000000 0.107023
0.358565 1.000000 0.221595
0.358565 1.000000 0.339200
0.358565 1.000000 0.458820
0.358565 1.000000 0.579959
0.358565 1.000000 0.702325
0.358565 1.000000 0.825719
0.358565 1.000000 0.950000
0.497880 0.010000 0.000000
0.497880 0.010000 0.107023
0.497880 0.010000 0.221595
0.497880 0.010000 0.339200
0.497880 0.010000 0.458820
0.497880 0.010000 0.579959
0.497880 0.010000 0.702325
0.497880 0.010000 0.825719
0.497880 0.010000 0.950000
0.497880 0.171588 0.000000
0.497880 0.171588 0.107023
0.497880 0.171588 0.221595
0.497880 0.171588 0.339200
0.497880 0.171588 0.458820
0.497880 0.171588 0.579959
0.497880 0.171588 0.702325
0.497880 0.171588 0.825719
0.497880 0.171588 0.950000
0.497880 0.311533 0.000000
0.497880 0.311533 0.107023
0.497880 0.311533 0.221595
0.497880 0.311533 0.339200
0.497880 0.311533 0.458820
0.497880 0.311533 0.579959
0.497880 0.311533 0.702325
0.497880 0.311533 0.825719
0.497880 0.311533 0.950000
0.497880 0.444328 0.000000
0.497880 0.444328 0.107023
0.497880 0.444328 0.221595
0.497880 0.444328 0.339200
0.497880 0.444328 0.458820
0.497880 0.444328 0.579959
0.497880 0.444328 0.702325
0.497880 0.444328 0.825719
0.497880 0.444328 0.950000
0.497880 0.572681 0.000000
0.497880 0.572681 0.107023
0.497880 0.572681 0.221595
0.497880 0.572681 0.339200
0.497880 0.572681 0.458820
0.497880 0.572681 0.579959
0.497880 0.572681 0.702325
0.497880 0.572681 0.825719
0.497880 0.572681 0.950000
0.497880 0.697830 0.000000
0.497880 0.697830 0.107023
0.497880 0.697830 0.221595
0.497880 0.697830 0.339200
0.497880 0.697830 0.458820
0.497880 0.697830 0.579959
0.497880 0.697830 0.702325
0.497880 0.697830 0.825719
0.497880 0.697830 0.950000
0.497880 0.820484 0.000000
0.497880 0.820484 0.107023
0.497880 0.820484 0.221595
0.497880 0.820484 0.339200
0.497880 0.820484 0.458820
0.497880 0.820484 0.579959
0.497880 0.820484 0.702325
0.497880 0.820484 0.825719
0.497880 0.820484 0.950000
0.497880 0.941100 0.000000
0.497880 0.941100 0.107023
0.497880 0.941100 0.221595
0.497880 0.941100 0.339200
0.497880 0.941100 0.458820
0.497880 0.941100 0.579959
0.497880 0.941100 0.702325
0.497880 0.941100 0.825719
0.497880 0.941100 0.950000
0.497880 1.000000 0.000000
0.497880 1.000000 0.107023
0.497880 1.000000 0.221595
0.497880 1.000000 0.339200
0.497880 1.000000 0.458820
0.497880 1.000000 0.579959
0.497880 1.000000 0.702325
0.497880 1.000000 0.825719
0.497880 1.000000 0.950000
0.630263 0.010000 0.000000
0.630263 0.010000 0.107023
0.630263 0.010000 0.221595
0.630263 0.010000 0.339200
0.630263 0.010000 0.458820
0.630263 0.010000 0.579959
0.630263 0.010000 0.702325
0.630263 0.010000 0.825719
0.630263 0.010000 0.950000
0.630263 0.171588 0.000000
0.630263 0.171588 0.107023
0.630263 0.171588 0.221595
0.630263 0.171588 0.339200
0.630263 0.171588 0.458820
0.630263 0.171588 0.579959
0.630263 0.171588 0.702325
0.630263 0.171588 0.825719
0.630263 0.171588 0.950000
0.630263 0.311533 0.000000
0.630263 0.311533 0.107023
0.630263 0.311533 0.221595
0.630263 0.311533 0.339200
0.630263 0.311533 0.458820
0.630263 0.311533 0.579959
0.630263 0.311533 0.702325
0.630263 0.311533 0.825719
0.630263 0.311533 0.950000
0.630263 0.444328 0.000000
0.630263 0.444328 0.107023
0.630263 0.444328 0.221595
0.630263 0.444328 0.339200
0.630263 0.444328 0.458820
0.630263 0.444328 0.579959
0.630263 0.444328 0.702325
0.630263 0.444328 0.825719
0.630263 0.444328 0.950000
0.630263 0.572681 0.000000
0.630263 0.572681 0.107023
0.630263 0.572681 0.221595
0.630263 0.572681 0.339200
0.630263 0.572681 0.458820
0.630263 0.572681 0.579959
0.630263 0.572681 0.702325
0.630263 0.572681 0.825719
0.630263 0.572681 0.950000
0.630263 0.697830 0.000000
0.630263 0.697830 0.107023
0.630263 0.697830 0.221595
0.630263 0.697830 0.339200
0.630263 0.697830 0.458820
0.630263 0.697830 0.579959
0.630263 0.697830 0.702325
0.630263 0.697830 0.825719
0.630263 0.697830 0.950000
0.630263 0.820484 0.000000
0.630263 0.820484 0.107023
0.630263 0.820484 0.221595
0.630263 0.820484 0.339200
0.630263 0.820484 0.458820
0.630263 0.820484 0.579959
0.630263 0.820484 0.702325
0.630263 0.820484 0.825719
0.630263 0.820484 0.950000
0.630263 0.941100 0.000000
0.630263 0.941100 0.107023
0.630263 0.941100 0.221595
0.630263 0.941100 0.339200
0.630263 0.941100 0.458820
0.630263 0.941100 0.579959
0.630263 0.941100 0.702325
0.630263 0.941100 0.825719
0.630263 0.941100 0.950000
0.630263 1.000000 0.000000
0.630263 1.000000 0.107023
0.630263 1.000000 0.221595
0.630263 1.000000 0.339200
0.630263 1.000000 0.458820
0.630263 1.000000 0.579959
0.630263 1.000000 0.702325
0.630263 1.000000 0.825719
0.630263 1.000000 0.950000
0.757719 0.010000 0.000000
0.757719 0.010000 0.107023
0.757719 0.010000 0.221595
0.757719 0.010000 0.339200
0.757719 0.010000 0.458820
0.757719 0.010000 0.579959
0.757719 0.010000 0.702325
0.757719 0.010000 0.825719
0.757719 0.010000 0.950000
0.757719 0.171588 0.000000
0.757719 0.171588 0.107023
0.757719 0.171588 0.221595
0.757719 0.171588 0.339200
0.757719 0.171588 0.458820
0.757719 0.171588 0.579959
0.757719 0.171588 0.702325
0.757719 0.171588 0.825719
0.757719 0.171588 0.950000
0.757719 0.311533 0.000000
0.757719 0.311533 0.107023
0.757719 0.311533 0.221595
0.757719 0.311533 0.339200
0.757719 0.311533 0.458820
0.757719 0.311533 0.579959
0.757719 0.311533 0.702325
0.757719 0.311533 0.825719
0.757719 0.311533 0.950000
0.757719 0.444328 0.000000
0.757719 0.444328 0.107023
0.757719 0.444328 0.221595
0.757719 0.444328 0.339200
0.757719 0.444328 0.458820
0.757719 0.444328 0.579959
0.757719 0.444328 0.702325
0.757719 0.444328 0.825719
0.757719 0.444328 0.950000
0.757719 0.572681 0.000000
0.757719 0.572681 0.107023
0.757719 0.572681 0.221595
0.757719 0.572681 0.339200
0.757719 0.572681 0.458820
0.757719 0.572681 0.579959
0.757719 0.572681 0.702325
0.757719 0.572681 0.825719
0.757719 0.572681 0.950000
0.757719 0.697830 0.000000
0.757719 0.697830 0.107023
0.757719 0.697830 0.221595
0.757719 0.697830 0.339200
0.757719 0.697830 0.458820
0.757719 0.697830 0.579959
0.757719 0.697830 0.702325
0.757719 0.697830 0.825719
0.757719 0.697830 0.950000
0.757719 0.820484 0.000000
0.757719 0.820484 0.107023
0.757719 0.820484 0.221595
0.757719 0.820484 0.339200
0.757719 0.820484 0.458820
0.757719 0.820484 0.579959
0.757719 0.820484 0.702325
0.757719 0.820484 0.825719
0.757719 0.820484 0.950000
0.757719 0.941100 0.000000
0.757719 0.941100 0.107023
0.757719 0.941100 0.221595
0.757719 0.941100 0.339200
0.757719 0.941100 0.458820
0.757719 0.941100 0.579959
0.757719 0.941100 0.702325
0.757719 0.941100 0.825719
0.757719 0.941100 0.950000
0.757719 1.000000 0.000000
0.757719 1.000000 0.107023
0.757719 1.000000 0.221595
0.757719 1.000000 0.339200
0.757719 1.000000 0.458820
0.757719 1.000000 0.579959
0.757719 1.000000 0.702325
0.757719 1.000000 0.825719
0.757719 1.000000 0.950000
0.881380 0.010000 0.000000
0.881380 0.010000 0.107023
0.881380 0.010000 0.221595
0.881380 0.010000 0.339200
0.881380 0.010000 0.458820
0.881380 0.010000 0.579959
0.881380 0.010000 0.702325
0.881380 0.010000 0.825719
0.881380 0.010000 0.950000
0.881380 0.171588 0.000000
0.881380 0.171588 0.107023
0.881380 0.171588 0.221595
0.881380 0.171588 0.339200
0.881380 0.171588 0.458820
0.881380 0.171588 0.579959
0.881380 0.171588 0.702325
0.881380 0.171588 0.825719
0.881380 0.171588 0.950000
0.881380 0.311533 0.000000
0.881380 0.311533 0.107023
0.881380 0.311533 0.221595
0.881380 0.311533 0.339200
0.881380 0.311533 0.458820
0.881380 0.311533 0.579959
0.881380 0.311533 0.702325
0.881380 0.311533 0.825719
0.881380 0.311533 0.950000
0.881380 0.444328 0.000000
0.881380 0.444328 0.107023
0.881380 0.444328 0.221595
0.881380 0.444328 0.339200
0.881380 0.444328 0.458820
0.881380 0.444328 0.579959
0.881380 0.444328 0.702325
0.881380 0.444328 0.825719
0.881380 0.444328 0.950000
0.881380 0.572681 0.000000
0.881380 0.572681 0.107023
0.881380 0.572681 0.221595
0.881380 0.572681 0.339200
0.881380 0.572681 0.458820
0.881380 0.572681 0.579959
0.881380 0.572681 0.702325
0.881380 0.572681 0.825719
0.881380 0.572681 0.950000
0.881380 0.697830 0.000000
0.881380 0.697830 0.107023
0.881380 0.697830 0.221595
0.881380 0.697830 0.339200
0.881380 0.697830 0.458820
0.881380 0.697830 0.579959
0.881380 0.697830 0.702325
0.881380 0.697830 0.825719
0.881380 0.697830 0.950000
0.881380 0.820484 0.000000
0.881380 0.820484 0.107023
0.881380 0.820484 0.221595
0.881380 0.820484 0.339200
0.881380 0.820484 0.458820
0.881380 0.820484 0.579959
0.881380 0.820484 0.702325
0.881380 0.820484 0.825719
0.881380 0.820484 0.950000
0.881380 0.941100 0.000000
0.881380 0.941100 0.107023
0.881380 0.941100 0.221595
0.881380 0.941100 0.339200
0.881380 0.941100 0.458820
0.881380 0.941100 0.579959
0.881380 0.941100 0.702325
0.881380 0.941100 0.825719
0.881380 0.941100 0.950000
0.881380 1.000000 0.000000
0.881380 1.000000 0.107023
0.881380 1.000000 0.221595
0.881380 1.000000 0.339200
0.881380 1.000000 0.458820
0.881380 1.000000 0.579959
0.881380 1.000000 0.702325
0.881380 1.000000 0.825719
0.881380 1.000000 0.950000
1.000000 0.010000 0.000000
1.000000 0.010000 0.107023
1.000000 0.010000 0.221595
1.000000 0.010000 0.339200
1.000000 0.010000 0.458820
1.000000 0.010000 0.579959
1.000000 0.010000 0.702325
1.000000 0.010000 0.825719
1.000000 0.010000 0.950000
1.000000 0.171588 0.000000
1.000000 0.171588 0.107023
1.000000 0.171588 0.221595
1.000000 0.171588 0.339200
1.000000 0.171588 0.458820
1.000000 0.171588 0.579959
1.000000 0.171588 0.702325
1.000000 0.171588 0.825719
1.000000 0.171588 0.950000
1.000000 0.311533 0.000000
1.000000 0.311533 0.107023
1.000000 0.311533 0.221595
1.000000 0.311533 0.339200
1.000000 0.311533 0.458820
1.000000 0.311533 0.579959
1.000000 0.311533 0.702325
1.000000 0.311533 0.825719
1.000000 0.311533 0.950000
1.000000 0.444328 0.000000
1.000000 0.444328 0.107023
1.000000 0.444328 0.221595
1.000000 0.444328 0.339200
1.000000 0.444328 0.458820
1.000000 0.444328 0.579959
1.000000 0.444328 0.702325
1.000000 0.444328 0.825719
1.000000 0.444328 0.950000
1.000000 0.572681 0.000000
1.000000 0.572681 0.107023
1.000000 0.572681 0.221595
1.000000 0.572681 0.339200
1.000000 0.572681 0.458820
1.000000 0.572681 0.579959
1.000000 0.572681 0.702325
1.000000 0.572681 0.825719
1.000000 0.572681 0.950000
1.000000 0.697830 0.000000
1.000000 0.697830 0.107023
1.000000 0.697830 0.221595
1.000000 0.697830 0.339200
1.000000 0.697830 0.458820
1.000000 0.697830 0.579959
1.000000 0.697830 0.702325
1.000000 0.697830 0.825719
1.000000 0.697830 0.950000
1.000000 0.820484 0.000000
1.000000 0.820484 0.107023
1.000000 0.820484 0.221595
1.000000 0.820484 0.339200
1.000000 0.820484 0.458820
1.000000 0.820484 0.579959
1.000000 0.820484 0.702325
1.000000 0.820484 0.825719
1.000000 0.820484 0.950000
1.000000 0.941100 0.000000
1.000000 0.941100 0.107023
1.000000 0.941100 0.221595
1.000000 0.941100 0.339200
1.000000 0.941100 0.458820
1.000000 0.941100 0.579959
1.000000 0.941100 0.702325
1.000000 0.941100 0.825719
1.000000 0.941100 0.950000
1.000000 1.000000 0.000000
1.000000 1.000000 0.107023
1.000000 1.000000 0.221595
1.000000 1.000000 0.339200
1.000000 1.000000 0.458820
1.000000 1.000000 0.579959
1.000000 1.000000 0.702325
1.000000 1.000000 0.825719
1.000000 1.000000 0.950000
1.000000 0.010000 0.000000
1.000000 0.010000 0.107023
1.000000 0.010000 0.221595
1.000000 0.010000 0.339200
1.000000 0.010000 0.458820
1.000000 0.010000 0.579959
1.000000 0.010000 0.702325
1.000000 0.010000 0.825719
1.000000 0.010000 0.950000
1.000000 0.171588 0.000000
1.000000 0.171588 0.107023
1.000000 0.171588 0.221595
1.000000 0.171588 0.339200
1.000000 0.171588 0.458820
1.000000 0.171588 0.579959
1.000000 0.171588 0.702325
1.000000 0.171588 0.825719
1.000000 0.171588 0.950000
1.000000 0.311533 0.000000
1.000000 0.311533 0.107023
1.000000 0.311533 0.221595
1.000000 0.311533 0.339200
1.000000 0.311533 0.458820
1.000000 0.311533 0.579959
1.000000 0.311533 0.702325
1.000000 0.311533 0.825719
1.000000 0.311533 0.950000
1.000000 0.444328 0.000000
1.000000 0.444328 0.107023
1.000000 0.444328 0.221595
1.000000 0.444328 0.339200
1.000000 0.444328 0.458820
1.000000 0.444328 0.579959
1.000000 0.444328 0.702325
1.000000 0.444328 0.825719
1.000000 0.444328 0.950000
1.000000 0.572681 0.000000
1.000000 0.572681 0.107023
1.000000 0.572681 0.221595
1.000000 0.572681 0.339200
1.000000 0.572681 0.458820
1.000000 0.572681 0.579959
1.000000 0.572681 0.702325
1.000000 0.572681 0.825719
1.000000 0.572681 0.950000
1.000000 0.697830 0.000000
1.000000 0.697830 0.107023
1.000000 0.697830 0.221595
1.000000 0.697830 0.339200
1.000000 0.697830 0.458820
1.000000 0.697830 0.579959
1.000000 0.697830 0.702325
1.000000 0.697830 0.825719
1.000000 0.697830 0.950000
1.000000 0.820484 0.000000
1.000000 0.820484 0.107023
1.000000 0.820484 0.221595
1.000000 0.820484 0.339200
1.000000 0.820484 0.458820
1.000000 0.820484 0.579959
1.000000 0.820484 0.702325
1.000000 0.820484 0.825719
1.000000 0.820484 0.950000
1.000000 0.941100 0.000000
1.000000 0.941100 0.107023
1.000000 0.941100 0.221595
1.000000 0.941100 0.339200
1.000000 0.941100 0.458820
1.000000 0.941100 0.579959
1.000000 0.941100 0.702325
1.000000 0.941100 0.825719
1.000000 0.941100 0.950000
1.000000 1.000000 0.000000
1.000000 1.000000 0.107023
1.000000 1.000000 0.221595
1.000000 1.000000 0.339200
1.000000 1.000000 0.458820
1.000000 1.000000 0.579959
1.000000 1.000000 0.702325
1.000000 1.000000 0.825719
1.000000 1.000000 0.950000
