taekwondo_lut.cube
TITLE "taekwondo LUT"
LUT_3D_SIZE 5
LUT_3D_INPUT_RANGE 0 1
0.020000 0.010000 0.000000
0.020000 0.010000 0.221595
0.020000 0.010000 0.458820
0.020000 0.010000 0.702325
0.020000 0.010000 0.950000
0.020000 0.311533 0.000000
0.020000 0.311533 0.221595
0.020000 0.311533 0.458820
0.020000 0.311533 0.702325
0.020000 0.311533 0.950000
0.020000 0.572681 0.000000
0.020000 0.572681 0.221595
0.020000 0.572681 0.458820
0.020000 0.572681 0.702325
0.020000 0.572681 0.950000
0.020000 0.820484 0.000000
0.020000 0.820484 0.221595
0.020000 0.820484 0.458820
0.020000 0.820484 0.702325
0.020000 0.820484 0.950000
0.020000 1.000000 0.000000
0.020000 1.000000 0.221595
0.020000 1.000000 0.458820
0.020000 1.000000 0.702325
0.020000 1.000000 0.950000
0.358565 0.010000 0.000000
0.358565 0.010000 0.221595
0.358565 0.010000 0.458820
0.358565 0.010000 0.702325
0.358565 0.010000 0.950000
0.358565 0.311533 0.000000
0.358565 0.311533 0.221595
0.358565 0.311533 0.458820
0.358565 0.311533 0.702325
0.358565 0.311533 0.950000
0.358565 0.572681 0.000000
0.358565 0.572681 0.221595
0.358565 0.572681 0.458820
0.358565 0.572681 0.702325
0.358565 0.572681 0.950000
0.358565 0.820484 0.000000
0.358565 0.820484 0.221595
0.358565 0.820484 0.458820
0.358565 0.820484 0.702325
0.358565 0.820484 0.950000
0.358565 1.000000 0.000000
0.358565 1.000000 0.221595
0.358565 1.000000 0.458820
0.358565 1.000000 0.702325
0.358565 1.000000 0.950000
0.630263 0.010000 0.000000
0.630263 0.010000 0.221595
0.630263 0.010000 0.458820
0.630263 0.010000 0.702325
0.630263 0.010000 0.950000
0.630263 0.311533 0.000000
0.630263 0.311533 0.221595
0.630263 0.311533 0.458820
0.630263 0.311533 0.702325
0.630263 0.311533 0.950000
0.630263 0.572681 0.000000
0.630263 0.572681 0.221595
0.630263 0.572681 0.458820
0.630263 0.572681 0.702325
0.630263 0.572681 0.950000
0.630263 0.820484 0.000000
0.630263 0.820484 0.221595
0.630263 0.820484 0.458820
0.630263 0.820484 0.702325
0.630263 0.820484 0.950000
0.630263 1.000000 0.000000
0.630263 1.000000 0.221595
0.630263 1.000000 0.458820
0.630263 1.000000 0.702325
0.630263 1.000000 0.950000
0.881380 0.010000 0.000000
0.881380 0.010000 0.221595
0.881380 0.010000 0.458820
0.881380 0.010000 0.702325
0.881380 0.010000 0.950000
0.881380 0.311533 0.000000
0.881380 0.311533 0.221595
0.881380 0.311533 0.458820
0.881380 0.311533 0.702325
0.881380 0.311533 0.950000
0.881380 0.572681 0.000000
0.881380 0.572681 0.221595
0.881380 0.572681 0.458820
0.881380 0.572681 0.702325
0.881380 0.572681 0.950000
0.881380 0.820484 0.000000
0.881380 0.820484 0.221595
0.881380 0.820484 0.458820
0.881380 0.820484 0.702325
0.881380 0.820484 0.950000
0.881380 1.000000 0.000000
0.881380 1.000000 0.221595
0.881380 1.000000 0.458820
0.881380 1.000000 0.702325
0.881380 1.000000 0.950000
1.000000 0.010000 0.000000
1.000000 0.010000 0.221595
1.000000 0.010000 0.458820
1.000000 0.010000 0.702325
1.000000 0.010000 0.950000
1.000000 0.311533 0.000000
1.000000 0.311533 0.221595
1.000000 0.311533 0.458820
1.000000 0.311533 0.702325
1.000000 0.311533 0.950000
1.000000 0.572681 0.000000
1.000000 0.572681 0.221595
1.000000 0.572681 0.458820
1.000000 0.572681 0.702325
1.000000 0.572681 0.950000
1.000000 0.820484 0.000000
1.000000 0.820484 0.221595
1.000000 0.820484 0.458820
1.000000 0.820484 0.702325
1.000000 0.820484 0.950000
1.000000 1.000000 0.000000
1.000000 1.000000 0.221595
1.000000 1.000000 0.458820
1.000000 1.000000 0.702325
1.000000 1.000000 0.950000
