taekwondo_lut.cube
TITLE "taekwondo LUT"
LUT_3D_SIZE 17
LUT_3D_INPUT_RANGE 0 1
0.020000 0.010000 0.000000
0.020000 0.010000 0.051689
0.020000 0.010000 0.107023
0.020000 0.010000 0.163823
0.020000 0.010000 0.221595
0.020000 0.010000 0.280102
0.020000 0.010000 0.339200
0.020000 0.010000 0.398796
0.020000 0.010000 0.458820
0.020000 0.010000 0.519221
0.020000 0.010000 0.579959
0.020000 0.010000 0.641003
0.020000 0.010000 0.702325
0.020000 0.010000 0.763903
0.020000 0.010000 0.825719
0.020000 0.010000 0.887756
0.020000 0.010000 0.950000
0.020000 0.096593 0.000000
0.020000 0.096593 0.051689
0.020000 0.096593 0.107023
0.020000 0.096593 0.163823
0.020000 0.096593 0.221595
0.020000 0.096593 0.280102
0.020000 0.096593 0.339200
0.020000 0.096593 0.398796
0.020000 0.096593 0.458820
0.020000 0.096593 0.519221
0.020000 0.096593 0.579959
0.020000 0.096593 0.641003
0.020000 0.096593 0.702325
0.020000 0.096593 0.763903
0.020000 0.096593 0.825719
0.020000 0.096593 0.887756
0.020000 0.096593 0.950000
0.020000 0.171588 0.000000
0.020000 0.171588 0.051689
0.020000 0.171588 0.107023
0.020000 0.171588 0.163823
0.020000 0.171588 0.221595
0.020000 0.171588 0.280102
0.020000 0.171588 0.339200
0.020000 0.171588 0.398796
0.020000 0.171588 0.458820
0.020000 0.171588 0.519221
0.020000 0.171588 0.579959
0.020000 0.171588 0.641003
0.020000 0.171588 0.702325
0.020000 0.171588 0.763903
0.020000 0.171588 0.825719
0.020000 0.171588 0.887756
0.020000 0.171588 0.950000
0.020000 0.242750 0.000000
0.020000 0.242750 0.051689
0.020000 0.242750 0.107023
0.020000 0.242750 0.163823
0.020000 0.242750 0.221595
0.020000 0.242750 0.280102
0.020000 0.242750 0.339200
0.020000 0.242750 0.398796
0.020000 0.242750 0.458820
0.020000 0.242750 0.519221
0.020000 0.242750 0.579959
0.020000 0.242750 0.641003
0.020000 0.242750 0.702325
0.020000 0.242750 0.763903
0.020000 0.242750 0.825719
0.020000 0.242750 0.887756
0.020000 0.242750 0.950000
0.020000 0.311533 0.000000
0.020000 0.311533 0.051689
0.020000 0.311533 0.107023
0.020000 0.311533 0.163823
0.020000 0.311533 0.221595
0.020000 0.311533 0.280102
0.020000 0.311533 0.339200
0.020000 0.311533 0.398796
0.020000 0.311533 0.458820
0.020000 0.311533 0.519221
0.020000 0.311533 0.579959
0.020000 0.311533 0.641003
0.020000 0.311533 0.702325
0.020000 0.311533 0.763903
0.020000 0.311533 0.825719
0.020000 0.311533 0.887756
0.020000 0.311533 0.950000
0.020000 0.378599 0.000000
0.020000 0.378599 0.051689
0.020000 0.378599 0.107023
0.020000 0.378599 0.163823
0.020000 0.378599 0.221595
0.020000 0.378599 0.280102
0.020000 0.378599 0.339200
0.020000 0.378599 0.398796
0.020000 0.378599 0.458820
0.020000 0.378599 0.519221
0.020000 0.378599 0.579959
0.020000 0.378599 0.641003
0.020000 0.378599 0.702325
0.020000 0.378599 0.763903
0.020000 0.378599 0.825719
0.020000 0.378599 0.887756
0.020000 0.378599 0.950000
0.020000 0.444328 0.000000
0.020000 0.444328 0.051689
0.020000 0.444328 0.107023
0.020000 0.444328 0.163823
0.020000 0.444328 0.221595
0.020000 0.444328 0.280102
0.020000 0.444328 0.339200
0.020000 0.444328 0.398796
0.020000 0.444328 0.458820
0.020000 0.444328 0.519221
0.020000 0.444328 0.579959
0.020000 0.444328 0.641003
0.020000 0.444328 0.702325
0.020000 0.444328 0.763903
0.020000 0.444328 0.825719
0.020000 0.444328 0.887756
0.020000 0.444328 0.950000
0.020000 0.508964 0.000000
0.020000 0.508964 0.051689
0.020000 0.508964 0.107023
0.020000 0.508964 0.163823
0.020000 0.508964 0.221595
0.020000 0.508964 0.280102
0.020000 0.508964 0.339200
0.020000 0.508964 0.398796
0.020000 0.508964 0.458820
0.020000 0.508964 0.519221
0.020000 0.508964 0.579959
0.020000 0.508964 0.641003
0.020000 0.508964 0.702325
0.020000 0.508964 0.763903
0.020000 0.508964 0.825719
0.020000 0.508964 0.887756
0.020000 0.508964 0.950000
0.020000 0.572681 0.000000
0.020000 0.572681 0.051689
0.020000 0.572681 0.107023
0.020000 0.572681 0.163823
0.020000 0.572681 0.221595
0.020000 0.572681 0.280102
0.020000 0.572681 0.339200
0.020000 0.572681 0.398796
0.020000 0.572681 0.458820
0.020000 0.572681 0.519221
0.020000 0.572681 0.579959
0.020000 0.572681 0.641003
0.020000 0.572681 0.702325
0.020000 0.572681 0.763903
0.020000 0.572681 0.825719
0.020000 0.572681 0.887756
0.020000 0.572681 0.950000
0.020000 0.635604 0.000000
0.020000 0.635604 0.051689
0.020000 0.635604 0.107023
0.020000 0.635604 0.163823
0.020000 0.635604 0.221595
0.020000 0.635604 0.280102
0.020000 0.635604 0.339200
0.020000 0.635604 0.398796
0.020000 0.635604 0.458820
0.020000 0.635604 0.519221
0.020000 0.635604 0.579959
0.020000 0.635604 0.641003
0.020000 0.635604 0.702325
0.020000 0.635604 0.763903
0.020000 0.635604 0.825719
0.020000 0.635604 0.887756
0.020000 0.635604 0.950000
0.020000 0.697830 0.000000
0.020000 0.697830 0.051689
0.020000 0.697830 0.107023
0.020000 0.697830 0.163823
0.020000 0.697830 0.221595
0.020000 0.697830 0.280102
0.020000 0.697830 0.339200
0.020000 0.697830 0.398796
0.020000 0.697830 0.458820
0.020000 0.697830 0.519221
0.020000 0.697830 0.579959
0.020000 0.697830 0.641003
0.020000 0.697830 0.702325
0.020000 0.697830 0.763903
0.020000 0.697830 0.825719
0.020000 0.697830 0.887756
0.020000 0.697830 0.950000
0.020000 0.759436 0.000000
0.020000 0.759436 0.051689
0.020000 0.759436 0.107023
0.020000 0.759436 0.163823
0.020000 0.759436 0.221595
0.020000 0.759436 0.280102
0.020000 0.759436 0.339200
0.020000 0.759436 0.398796
0.020000 0.759436 0.458820
0.020000 0.759436 0.519221
0.020000 0.759436 0.579959
0.020000 0.759436 0.641003
0.020000 0.759436 0.702325
0.020000 0.759436 0.763903
0.020000 0.759436 0.825719
0.020000 0.759436 0.887756
0.020000 0.759436 0.950000
0.020000 0.820484 0.000000
0.020000 0.820484 0.051689
0.020000 0.820484 0.107023
0.020000 0.820484 0.163823
0.020000 0.820484 0.221595
0.020000 0.820484 0.280102
0.020000 0.820484 0.339200
0.020000 0.820484 0.398796
0.020000 0.820484 0.458820
0.020000 0.820484 0.519221
0.020000 0.820484 0.579959
0.020000 0.820484 0.641003
0.020000 0.820484 0.702325
0.020000 0.820484 0.763903
0.020000 0.820484 0.825719
0.020000 0.820484 0.887756
0.020000 0.820484 0.950000
0.020000 0.881024 0.000000
0.020000 0.881024 0.051689
0.020000 0.881024 0.107023
0.020000 0.881024 0.163823
0.020000 0.881024 0.221595
0.020000 0.881024 0.280102
0.020000 0.881024 0.339200
0.020000 0.881024 0.398796
0.020000 0.881024 0.458820
0.020000 0.881024 0.519221
0.020000 0.881024 0.579959
0.020000 0.881024 0.641003
0.020000 0.881024 0.702325
0.020000 0.881024 0.763903
0.020000 0.881024 0.825719
0.020000 0.881024 0.887756
0.020000 0.881024 0.950000
0.020000 0.941100 0.000000
0.020000 0.941100 0.051689
0.020000 0.941100 0.107023
0.020000 0.941100 0.163823
0.020000 0.941100 0.221595
0.020000 0.941100 0.280102
0.020000 0.941100 0.339200
0.020000 0.941100 0.398796
0.020000 0.941100 0.458820
0.020000 0.941100 0.519221
0.020000 0.941100 0.579959
0.020000 0.941100 0.641003
0.020000 0.941100 0.702325
0.020000 0.941100 0.763903
0.020000 0.941100 0.825719
0.020000 0.941100 0.887756
0.020000 0.941100 0.950000
0.020000 1.000000 0.000000
0.020000 1.000000 0.051689
0.020000 1.000000 0.107023
0.020000 1.000000 0.163823
0.020000 1.000000 0.221595
0.020000 1.000000 0.280102
0.020000 1.000000 0.339200
0.020000 1.000000 0.398796
0.020000 1.000000 0.458820
0.020000 1.000000 0.519221
0.020000 1.000000 0.579959
0.020000 1.000000 0.641003
0.020000 1.000000 0.702325
0.020000 1.000000 0.763903
0.020000 1.000000 0.825719
0.020000 1.000000 0.887756
0.020000 1.000000 0.950000
0.020000 1.000000 0.000000
0.020000 1.000000 0.051689
0.020000 1.000000 0.107023
0.020000 1.000000 0.163823
0.020000 1.000000 0.221595
0.020000 1.000000 0.280102
0.020000 1.000000 0.339200
0.020000 1.000000 0.398796
0.020000 1.000000 0.458820
0.020000 1.000000 0.519221
0.020000 1.000000 0.579959
0.020000 1.000000 0.641003
0.020000 1.000000 0.702325
0.020000 1.000000 0.763903
0.020000 1.000000 0.825719
0.020000 1.000000 0.887756
0.020000 1.000000 0.950000
0.124206 0.010000 0.000000
0.124206 0.010000 0.051689
0.124206 0.010000 0.107023
0.124206 0.010000 0.163823
0.124206 0.010000 0.221595
0.124206 0.010000 0.280102
0.124206 0.010000 0.339200
0.124206 0.010000 0.398796
0.124206 0.010000 0.458820
0.124206 0.010000 0.519221
0.124206 0.010000 0.579959
0.124206 0.010000 0.641003
0.124206 0.010000 0.702325
0.124206 0.010000 0.763903
0.124206 0.010000 0.825719
0.124206 0.010000 0.887756
0.124206 0.010000 0.950000
0.124206 0.096593 0.000000
0.124206 0.096593 0.051689
0.124206 0.096593 0.107023
0.124206 0.096593 0.163823
0.124206 0.096593 0.221595
0.124206 0.096593 0.280102
0.124206 0.096593 0.339200
0.124206 0.096593 0.398796
0.124206 0.096593 0.458820
0.124206 0.096593 0.519221
0.124206 0.096593 0.579959
0.124206 0.096593 0.641003
0.124206 0.096593 0.702325
0.124206 0.096593 0.763903
0.124206 0.096593 0.825719
0.124206 0.096593 0.887756
0.124206 0.096593 0.950000
0.124206 0.171588 0.000000
0.124206 0.171588 0.051689
0.124206 0.171588 0.107023
0.124206 0.171588 0.163823
0.124206 0.171588 0.221595
0.124206 0.171588 0.280102
0.124206 0.171588 0.339200
0.124206 0.171588 0.398796
0.124206 0.171588 0.458820
0.124206 0.171588 0.519221
0.124206 0.171588 0.579959
0.124206 0.171588 0.641003
0.124206 0.171588 0.702325
0.124206 0.171588 0.763903
0.124206 0.171588 0.825719
0.124206 0.171588 0.887756
0.124206 0.171588 0.950000
0.124206 0.242750 0.000000
0.124206 0.242750 0.051689
0.124206 0.242750 0.107023
0.124206 0.242750 0.163823
0.124206 0.242750 0.221595
0.124206 0.242750 0.280102
0.124206 0.242750 0.339200
0.124206 0.242750 0.398796
0.124206 0.242750 0.458820
0.124206 0.242750 0.519221
0.124206 0.242750 0.579959
0.124206 0.242750 0.641003
0.124206 0.242750 0.702325
0.124206 0.242750 0.763903
0.124206 0.242750 0.825719
0.124206 0.242750 0.887756
0.124206 0.242750 0.950000
0.124206 0.311533 0.000000
0.124206 0.311533 0.051689
0.124206 0.311533 0.107023
0.124206 0.311533 0.163823
0.124206 0.311533 0.221595
0.124206 0.311533 0.280102
0.124206 0.311533 0.339200
0.124206 0.311533 0.398796
0.124206 0.311533 0.458820
0.124206 0.311533 0.519221
0.124206 0.311533 0.579959
0.124206 0.311533 0.641003
0.124206 0.311533 0.702325
0.124206 0.311533 0.763903
0.124206 0.311533 0.825719
0.124206 0.311533 0.887756
0.124206 0.311533 0.950000
0.124206 0.378599 0.000000
0.124206 0.378599 0.051689
0.124206 0.378599 0.107023
0.124206 0.378599 0.163823
0.124206 0.378599 0.221595
0.124206 0.378599 0.280102
0.124206 0.378599 0.339200
0.124206 0.378599 0.398796
0.124206 0.378599 0.458820
0.124206 0.378599 0.519221
0.124206 0.378599 0.579959
0.124206 0.378599 0.641003
0.124206 0.378599 0.702325
0.124206 0.378599 0.763903
0.124206 0.378599 0.825719
0.124206 0.378599 0.887756
0.124206 0.378599 0.950000
0.124206 0.444328 0.000000
0.124206 0.444328 0.051689
0.124206 0.444328 0.107023
0.124206 0.444328 0.163823
0.124206 0.444328 0.221595
0.124206 0.444328 0.280102
0.124206 0.444328 0.339200
0.124206 0.444328 0.398796
0.124206 0.444328 0.458820
0.124206 0.444328 0.519221
0.124206 0.444328 0.579959
0.124206 0.444328 0.641003
0.124206 0.444328 0.702325
0.124206 0.444328 0.763903
0.124206 0.444328 0.825719
0.124206 0.444328 0.887756
0.124206 0.444328 0.950000
0.124206 0.508964 0.000000
0.124206 0.508964 0.051689
0.124206 0.508964 0.107023
0.124206 0.508964 0.163823
0.124206 0.508964 0.221595
0.124206 0.508964 0.280102
0.124206 0.508964 0.339200
0.124206 0.508964 0.398796
0.124206 0.508964 0.458820
0.124206 0.508964 0.519221
0.124206 0.508964 0.579959
0.124206 0.508964 0.641003
0.124206 0.508964 0.702325
0.124206 0.508964 0.763903
0.124206 0.508964 0.825719
0.124206 0.508964 0.887756
0.124206 0.508964 0.950000
0.124206 0.572681 0.000000
0.124206 0.572681 0.051689
0.124206 0.572681 0.107023
0.124206 0.572681 0.163823
0.124206 0.572681 0.221595
0.124206 0.572681 0.280102
0.124206 0.572681 0.339200
0.124206 0.572681 0.398796
0.124206 0.572681 0.458820
0.124206 0.572681 0.519221
0.124206 0.572681 0.579959
0.124206 0.572681 0.641003
0.124206 0.572681 0.702325
0.124206 0.572681 0.763903
0.124206 0.572681 0.825719
0.124206 0.572681 0.887756
0.124206 0.572681 0.950000
0.124206 0.635604 0.000000
0.124206 0.635604 0.051689
0.124206 0.635604 0.107023
0.124206 0.635604 0.163823
0.124206 0.635604 0.221595
0.124206 0.635604 0.280102
0.124206 0.635604 0.339200
0.124206 0.635604 0.398796
0.124206 0.635604 0.458820
0.124206 0.635604 0.519221
0.124206 0.635604 0.579959
0.124206 0.635604 0.641003
0.124206 0.635604 0.702325
0.124206 0.635604 0.763903
0.124206 0.635604 0.825719
0.124206 0.635604 0.887756
0.124206 0.635604 0.950000
0.124206 0.697830 0.000000
0.124206 0.697830 0.051689
0.124206 0.697830 0.107023
0.124206 0.697830 0.163823
0.124206 0.697830 0.221595
0.124206 0.697830 0.280102
0.124206 0.697830 0.339200
0.124206 0.697830 0.398796
0.124206 0.697830 0.458820
0.124206 0.697830 0.519221
0.124206 0.697830 0.579959
0.124206 0.697830 0.641003
0.124206 0.697830 0.702325
0.124206 0.697830 0.763903
0.124206 0.697830 0.825719
0.124206 0.697830 0.887756
0.124206 0.697830 0.950000
0.124206 0.759436 0.000000
0.124206 0.759436 0.051689
0.124206 0.759436 0.107023
0.124206 0.759436 0.163823
0.124206 0.759436 0.221595
0.124206 0.759436 0.280102
0.124206 0.759436 0.339200
0.124206 0.759436 0.398796
0.124206 0.759436 0.458820
0.124206 0.759436 0.519221
0.124206 0.759436 0.579959
0.124206 0.759436 0.641003
0.124206 0.759436 0.702325
0.124206 0.759436 0.763903
0.124206 0.759436 0.825719
0.124206 0.759436 0.887756
0.124206 0.759436 0.950000
0.124206 0.820484 0.000000
0.124206 0.820484 0.051689
0.124206 0.820484 0.107023
0.124206 0.820484 0.163823
0.124206 0.820484 0.221595
0.124206 0.820484 0.280102
0.124206 0.820484 0.339200
0.124206 0.820484 0.398796
0.124206 0.820484 0.458820
0.124206 0.820484 0.519221
0.124206 0.820484 0.579959
0.124206 0.820484 0.641003
0.124206 0.820484 0.702325
0.124206 0.820484 0.763903
0.124206 0.820484 0.825719
0.124206 0.820484 0.887756
0.124206 0.820484 0.950000
0.124206 0.881024 0.000000
0.124206 0.881024 0.051689
0.124206 0.881024 0.107023
0.124206 0.881024 0.163823
0.124206 0.881024 0.221595
0.124206 0.881024 0.280102
0.124206 0.881024 0.339200
0.124206 0.881024 0.398796
0.124206 0.881024 0.458820
0.124206 0.881024 0.519221
0.124206 0.881024 0.579959
0.124206 0.881024 0.641003
0.124206 0.881024 0.702325
0.124206 0.881024 0.763903
0.124206 0.881024 0.825719
0.124206 0.881024 0.887756
0.124206 0.881024 0.950000
0.124206 0.941100 0.000000
0.124206 0.941100 0.051689
0.124206 0.941100 0.107023
0.124206 0.941100 0.163823
0.124206 0.941100 0.221595
0.124206 0.941100 0.280102
0.124206 0.941100 0.339200
0.124206 0.941100 0.398796
0.124206 0.941100 0.458820
0.124206 0.941100 0.519221
0.124206 0.941100 0.579959
0.124206 0.941100 0.641003
0.124206 0.941100 0.702325
0.124206 0.941100 0.763903
0.124206 0.941100 0.825719
0.124206 0.941100 0.887756
0.124206 0.941100 0.950000
0.124206 1.000000 0.000000
0.124206 1.000000 0.051689
0.124206 1.000000 0.107023
0.124206 1.000000 0.163823
0.124206 1.000000 0.221595
0.124206 1.000000 0.280102
0.124206 1.000000 0.339200
0.124206 1.000000 0.398796
0.124206 1.000000 0.458820
0.124206 1.000000 0.519221
0.124206 1.000000 0.579959
0.124206 1.000000 0.641003
0.124206 1.000000 0.702325
0.124206 1.000000 0.763903
0.124206 1.000000 0.825719
0.124206 1.000000 0.887756
0.124206 1.000000 0.950000
0.124206 1.000000 0.000000
0.124206 1.000000 0.051689
0.124206 1.000000 0.107023
0.124206 1.000000 0.163823
0.124206 1.000000 0.221595
0.124206 1.000000 0.280102
0.124206 1.000000 0.339200
0.124206 1.000000 0.398796
0.124206 1.000000 0.458820
0.124206 1.000000 0.519221
0.124206 1.000000 0.579959
0.124206 1.000000 0.641003
0.124206 1.000000 0.702325
0.124206 1.000000 0.763903
0.124206 1.000000 0.825719
0.124206 1.000000 0.887756
0.124206 1.000000 0.950000
0.207831 0.010000 0.000000
0.207831 0.010000 0.051689
0.207831 0.010000 0.107023
0.207831 0.010000 0.163823
0.207831 0.010000 0.221595
0.207831 0.010000 0.280102
0.207831 0.010000 0.339200
0.207831 0.010000 0.398796
0.207831 0.010000 0.458820
0.207831 0.010000 0.519221
0.207831 0.010000 0.579959
0.207831 0.010000 0.641003
0.207831 0.010000 0.702325
0.207831 0.010000 0.763903
0.207831 0.010000 0.825719
0.207831 0.010000 0.887756
0.207831 0.010000 0.950000
0.207831 0.096593 0.000000
0.207831 0.096593 0.051689
0.207831 0.096593 0.107023
0.207831 0.096593 0.163823
0.207831 0.096593 0.221595
0.207831 0.096593 0.280102
0.207831 0.096593 0.339200
0.207831 0.096593 0.398796
0.207831 0.096593 0.458820
0.207831 0.096593 0.519221
0.207831 0.096593 0.579959
0.207831 0.096593 0.641003
0.207831 0.096593 0.702325
0.207831 0.096593 0.763903
0.207831 0.096593 0.825719
0.207831 0.096593 0.887756
0.207831 0.096593 0.950000
0.207831 0.171588 0.000000
0.207831 0.171588 0.051689
0.207831 0.171588 0.107023
0.207831 0.171588 0.163823
0.207831 0.171588 0.221595
0.207831 0.171588 0.280102
0.207831 0.171588 0.339200
0.207831 0.171588 0.398796
0.207831 0.171588 0.458820
0.207831 0.171588 0.519221
0.207831 0.171588 0.579959
0.207831 0.171588 0.641003
0.207831 0.171588 0.702325
0.207831 0.171588 0.763903
0.207831 0.171588 0.825719
0.207831 0.171588 0.887756
0.207831 0.171588 0.950000
0.207831 0.242750 0.000000
0.207831 0.242750 0.051689
0.207831 0.242750 0.107023
0.207831 0.242750 0.163823
0.207831 0.242750 0.221595
0.207831 0.242750 0.280102
0.207831 0.242750 0.339200
0.207831 0.242750 0.398796
0.207831 0.242750 0.458820
0.207831 0.242750 0.519221
0.207831 0.242750 0.579959
0.207831 0.242750 0.641003
0.207831 0.242750 0.702325
0.207831 0.242750 0.763903
0.207831 0.242750 0.825719
0.207831 0.242750 0.887756
0.207831 0.242750 0.950000
0.207831 0.311533 0.000000
0.207831 0.311533 0.051689
0.207831 0.311533 0.107023
0.207831 0.311533 0.163823
0.207831 0.311533 0.221595
0.207831 0.311533 0.280102
0.207831 0.311533 0.339200
0.207831 0.311533 0.398796
0.207831 0.311533 0.458820
0.207831 0.311533 0.519221
0.207831 0.311533 0.579959
0.207831 0.311533 0.641003
0.207831 0.311533 0.702325
0.207831 0.311533 0.763903
0.207831 0.311533 0.825719
0.207831 0.311533 0.887756
0.207831 0.311533 0.950000
0.207831 0.378599 0.000000
0.207831 0.378599 0.051689
0.207831 0.378599 0.107023
0.207831 0.378599 0.163823
0.207831 0.378599 0.221595
0.207831 0.378599 0.280102
0.207831 0.378599 0.339200
0.207831 0.378599 0.398796
0.207831 0.378599 0.458820
0.207831 0.378599 0.519221
0.207831 0.378599 0.579959
0.207831 0.378599 0.641003
0.207831 0.378599 0.702325
0.207831 0.378599 0.763903
0.207831 0.378599 0.825719
0.207831 0.378599 0.887756
0.207831 0.378599 0.950000
0.207831 0.444328 0.000000
0.207831 0.444328 0.051689
0.207831 0.444328 0.107023
0.207831 0.444328 0.163823
0.207831 0.444328 0.221595
0.207831 0.444328 0.280102
0.207831 0.444328 0.339200
0.207831 0.444328 0.398796
0.207831 0.444328 0.458820
0.207831 0.444328 0.519221
0.207831 0.444328 0.579959
0.207831 0.444328 0.641003
0.207831 0.444328 0.702325
0.207831 0.444328 0.763903
0.207831 0.444328 0.825719
0.207831 0.444328 0.887756
0.207831 0.444328 0.950000
0.207831 0.508964 0.000000
0.207831 0.508964 0.051689
0.207831 0.508964 0.107023
0.207831 0.508964 0.163823
0.207831 0.508964 0.221595
0.207831 0.508964 0.280102
0.207831 0.508964 0.339200
0.207831 0.508964 0.398796
0.207831 0.508964 0.458820
0.207831 0.508964 0.519221
0.207831 0.508964 0.579959
0.207831 0.508964 0.641003
0.207831 0.508964 0.702325
0.207831 0.508964 0.763903
0.207831 0.508964 0.825719
0.207831 0.508964 0.887756
0.207831 0.508964 0.950000
0.207831 0.572681 0.000000
0.207831 0.572681 0.051689
0.207831 0.572681 0.107023
0.207831 0.572681 0.163823
0.207831 0.572681 0.221595
0.207831 0.572681 0.280102
0.207831 0.572681 0.339200
0.207831 0.572681 0.398796
0.207831 0.572681 0.458820
0.207831 0.572681 0.519221
0.207831 0.572681 0.579959
0.207831 0.572681 0.641003
0.207831 0.572681 0.702325
0.207831 0.572681 0.763903
0.207831 0.572681 0.825719
0.207831 0.572681 0.887756
0.207831 0.572681 0.950000
0.207831 0.635604 0.000000
0.207831 0.635604 0.051689
0.207831 0.635604 0.107023
0.207831 0.635604 0.163823
0.207831 0.635604 0.221595
0.207831 0.635604 0.280102
0.207831 0.635604 0.339200
0.207831 0.635604 0.398796
0.207831 0.635604 0.458820
0.207831 0.635604 0.519221
0.207831 0.635604 0.579959
0.207831 0.635604 0.641003
0.207831 0.635604 0.702325
0.207831 0.635604 0.763903
0.207831 0.635604 0.825719
0.207831 0.635604 0.887756
0.207831 0.635604 0.950000
0.207831 0.697830 0.000000
0.207831 0.697830 0.051689
0.207831 0.697830 0.107023
0.207831 0.697830 0.163823
0.207831 0.697830 0.221595
0.207831 0.697830 0.280102
0.207831 0.697830 0.339200
0.207831 0.697830 0.398796
0.207831 0.697830 0.458820
0.207831 0.697830 0.519221
0.207831 0.697830 0.579959
0.207831 0.697830 0.641003
0.207831 0.697830 0.702325
0.207831 0.697830 0.763903
0.207831 0.697830 0.825719
0.207831 0.697830 0.887756
0.207831 0.697830 0.950000
0.207831 0.759436 0.000000
0.207831 0.759436 0.051689
0.207831 0.759436 0.107023
0.207831 0.759436 0.163823
0.207831 0.759436 0.221595
0.207831 0.759436 0.280102
0.207831 0.759436 0.339200
0.207831 0.759436 0.398796
0.207831 0.759436 0.458820
0.207831 0.759436 0.519221
0.207831 0.759436 0.579959
0.207831 0.759436 0.641003
0.207831 0.759436 0.702325
0.207831 0.759436 0.763903
0.207831 0.759436 0.825719
0.207831 0.759436 0.887756
0.207831 0.759436 0.950000
0.207831 0.820484 0.000000
0.207831 0.820484 0.051689
0.207831 0.820484 0.107023
0.207831 0.820484 0.163823
0.207831 0.820484 0.221595
0.207831 0.820484 0.280102
0.207831 0.820484 0.339200
0.207831 0.820484 0.398796
0.207831 0.820484 0.458820
0.207831 0.820484 0.519221
0.207831 0.820484 0.579959
0.207831 0.820484 0.641003
0.207831 0.820484 0.702325
0.207831 0.820484 0.763903
0.207831 0.820484 0.825719
0.207831 0.820484 0.887756
0.207831 0.820484 0.950000
0.207831 0.881024 0.000000
0.207831 0.881024 0.051689
0.207831 0.881024 0.107023
0.207831 0.881024 0.163823
0.207831 0.881024 0.221595
0.207831 0.881024 0.280102
0.207831 0.881024 0.339200
0.207831 0.881024 0.398796
0.207831 0.881024 0.458820
0.207831 0.881024 0.519221
0.207831 0.881024 0.579959
0.207831 0.881024 0.641003
0.207831 0.881024 0.702325
0.207831 0.881024 0.763903
0.207831 0.881024 0.825719
0.207831 0.881024 0.887756
0.207831 0.881024 0.950000
0.207831 0.941100 0.000000
0.207831 0.941100 0.051689
0.207831 0.941100 0.107023
0.207831 0.941100 0.163823
0.207831 0.941100 0.221595
0.207831 0.941100 0.280102
0.207831 0.941100 0.339200
0.207831 0.941100 0.398796
0.207831 0.941100 0.458820
0.207831 0.941100 0.519221
0.207831 0.941100 0.579959
0.207831 0.941100 0.641003
0.207831 0.941100 0.702325
0.207831 0.941100 0.763903
0.207831 0.941100 0.825719
0.207831 0.941100 0.887756
0.207831 0.941100 0.950000
0.207831 1.000000 0.000000
0.207831 1.000000 0.051689
0.207831 1.000000 0.107023
0.207831 1.000000 0.163823
0.207831 1.000000 0.221595
0.207831 1.000000 0.280102
0.207831 1.000000 0.339200
0.207831 1.000000 0.398796
0.207831 1.000000 0.458820
0.207831 1.000000 0.519221
0.207831 1.000000 0.579959
0.207831 1.000000 0.641003
0.207831 1.000000 0.702325
0.207831 1.000000 0.763903
0.207831 1.000000 0.825719
0.207831 1.000000 0.887756
0.207831 1.000000 0.950000
0.207831 1.000000 0.000000
0.207831 1.000000 0.051689
0.207831 1.000000 0.107023
0.207831 1.000000 0.163823
0.207831 1.000000 0.221595
0.207831 1.000000 0.280102
0.207831 1.000000 0.339200
0.207831 1.000000 0.398796
0.207831 1.000000 0.458820
0.207831 1.000000 0.519221
0.207831 1.000000 0.579959
0.207831 1.000000 0.641003
0.207831 1.000000 0.702325
0.207831 1.000000 0.763903
0.207831 1.000000 0.825719
0.207831 1.000000 0.887756
0.207831 1.000000 0.950000
0.285121 0.010000 0.000000
0.285121 0.010000 0.051689
0.285121 0.010000 0.107023
0.285121 0.010000 0.163823
0.285121 0.010000 0.221595
0.285121 0.010000 0.280102
0.285121 0.010000 0.339200
0.285121 0.010000 0.398796
0.285121 0.010000 0.458820
0.285121 0.010000 0.519221
0.285121 0.010000 0.579959
0.285121 0.010000 0.641003
0.285121 0.010000 0.702325
0.285121 0.010000 0.763903
0.285121 0.010000 0.825719
0.285121 0.010000 0.887756
0.285121 0.010000 0.950000
0.285121 0.096593 0.000000
0.285121 0.096593 0.051689
